svg/justvector/viddler.svg

<svg xmlns="http://www.w3.org/2000/svg" viewBox="0 0 100 100" enable-background="new 0 0 100 100"><path d="m73.27 55.58c12 0 21.733-9.647 21.733-21.544 0-11.889-9.732-21.536-21.733-21.536-10.915 0-19.943 7.976-21.484 18.368h-.696c-1.55-10.392-10.578-18.368-21.492-18.368-12 0-21.725 9.647-21.725 21.536 0 11.786 9.547 21.362 21.396 21.536v.008h.654v7.343l-24.92-6.694v28.648l24.921-7.431v10.05h36.626l-10.738-31.92h17.41c.016 0 .032 0 .048 0m-43.672-15.46c-3.39 0-6.139-2.718-6.139-6.084 0-3.358 2.749-6.083 6.139-6.083 3.387 0 6.135 2.725 6.135 6.083-.0001 3.366-2.749 6.084-6.135 6.084m37.983-6.084c0-3.358 2.741-6.083 6.128-6.083 3.396 0 6.145 2.725 6.145 6.083 0 3.366-2.748 6.091-6.145 6.091-3.387 0-6.128-2.725-6.128-6.091"/></svg>

<?xml version="1.0" encoding="iso-8859-1"?>
<!-- Generator: Adobe Illustrator 15.0.0, SVG Export Plug-In . SVG Version: 6.00 Build 0)  -->
<!DOCTYPE svg PUBLIC "-//W3C//DTD SVG 1.1//EN" "http://www.w3.org/Graphics/SVG/1.1/DTD/svg11.dtd">
<svg version="1.1" id="Icons" xmlns="http://www.w3.org/2000/svg" xmlns:xlink="http://www.w3.org/1999/xlink" x="0px" y="0px"
	 width="100px" height="100px" viewBox="0 0 100 100" style="enable-background:new 0 0 100 100;" xml:space="preserve">
<path id="Viddler" d="M73.267,55.58C85.268,55.58,95,45.933,95,34.036C95,22.147,85.268,12.5,73.267,12.5
	c-10.915,0-19.943,7.976-21.484,18.368h-0.696C49.537,20.476,40.509,12.5,29.595,12.5C17.593,12.5,7.87,22.147,7.87,34.036
	c0,11.786,9.547,21.362,21.396,21.536v0.008h0.654v7.343L5,56.229v28.648l24.921-7.431V87.5h36.626L55.809,55.58h17.41
	C73.235,55.58,73.251,55.58,73.267,55.58z M29.595,40.12c-3.39,0-6.139-2.718-6.139-6.084c0-3.358,2.749-6.083,6.139-6.083
	c3.387,0,6.135,2.725,6.135,6.083C35.729,37.402,32.981,40.12,29.595,40.12z M67.578,34.036c0-3.358,2.741-6.083,6.128-6.083
	c3.396,0,6.145,2.725,6.145,6.083c0,3.366-2.748,6.091-6.145,6.091C70.319,40.127,67.578,37.402,67.578,34.036z"/>
</svg>
